vendor/shopware/storefront/Resources/app/storefront/dist/assets/icon/solid/trash.svg

<svg xmlns="http://www.w3.org/2000/svg" width="16" height="16" viewBox="0 0 16 16">
  <path fill="#758CA3" fill-rule="evenodd" d="M5,10 C5,9.44771525 5.44771525,9 6,9 C6.55228475,9 7,9.44771525 7,10 L7,12 C7,12.5522847 6.55228475,13 6,13 C5.44771525,13 5,12.5522847 5,12 L5,10 Z M9,10 C9,9.44771525 9.44771525,9 10,9 C10.5522847,9 11,9.44771525 11,10 L11,12 C11,12.5522847 10.5522847,13 10,13 C9.44771525,13 9,12.5522847 9,12 L9,10 Z M4,3 L4,2 C4,0.8954305 4.8954305,2.02906125e-16 6,0 L10,0 C11.1045695,-2.02906125e-16 12,0.8954305 12,2 L12,3 L13,3 C14.1045695,3 15,3.8954305 15,5 L15,7 C15,7.55228475 14.5522847,8 14,8 L14,14 C14,15.1045695 13.1045695,16 12,16 L4,16 C2.8954305,16 2,15.1045695 2,14 L2,8 C1.44771525,8 1,7.55228475 1,7 L1,5 C1,3.8954305 1.8954305,3 3,3 L4,3 Z M4,5 L3,5 L3,6 L13,6 L13,5 L12,5 L4,5 Z M4,8 L4,14 L12,14 L12,8 L4,8 Z M6,3 L10,3 L10,2 L6,2 L6,3 Z"/>
</svg>

<svg xmlns="http://www.w3.org/2000/svg" width="16" height="16" viewBox="0 0 16 16"><path fill="#758CA3" fill-rule="evenodd" d="M5 10c0-.5523.4477-1 1-1s1 .4477 1 1v2c0 .5523-.4477 1-1 1s-1-.4477-1-1v-2zm4 0c0-.5523.4477-1 1-1s1 .4477 1 1v2c0 .5523-.4477 1-1 1s-1-.4477-1-1v-2zM4 3V2c0-1.1046.8954-2 2-2h4c1.1046 0 2 .8954 2 2v1h1c1.1046 0 2 .8954 2 2v2c0 .5523-.4477 1-1 1v6c0 1.1046-.8954 2-2 2H4c-1.1046 0-2-.8954-2-2V8c-.5523 0-1-.4477-1-1V5c0-1.1046.8954-2 2-2h1zm0 2H3v1h10V5H4zm0 3v6h8V8H4zm2-5h4V2H6v1z"/></svg>
